modules/hawcons-stroke/icons/cloud-moon-snow.svg

<?xml version="1.0" encoding="UTF-8" standalone="no"?>
<svg width="32px" height="32px" viewBox="0 0 32 32" version="1.1" xmlns="http://www.w3.org/2000/svg" xmlns:xlink="http://www.w3.org/1999/xlink" xmlns:sketch="http://www.bohemiancoding.com/sketch/ns">
    <!-- Generator: Sketch 3.0.3 (7891) - http://www.bohemiancoding.com/sketch -->
    <title>icon 9 cloud moon snow</title>
    <desc>Created with Sketch.</desc>
    <defs></defs>
    <g id="Page-1" stroke="none" stroke-width="1" fill="none" fill-rule="evenodd" sketch:type="MSPage">
        <g id="icon-9-cloud-moon-snow" sketch:type="MSArtboardGroup" fill="#929292">
            <path d="M7.10100919,15.096758 C5.32460991,15.5063396 4,17.0992133 4,18.9946037 C4,21.2037427 5.79793835,22.9946037 8.00281647,22.9946037 L24.9971835,22.9946037 C27.207878,22.9946037 29,21.1992475 29,18.9946037 C29,17.1171611 27.70144,15.5418196 25.9581226,15.1110783 L25.9581226,15.1110783 C25.9857342,14.9095321 26,14.7037339 26,14.4946037 C26,12.0093222 23.9852815,9.99460366 21.5,9.99460366 C20.2744589,9.99460366 19.1633432,10.4845166 18.3518132,11.2791823 C17.3608691,9.33000957 15.336385,7.99460366 13,7.99460366 C9.68629134,7.99460366 7,10.680895 7,13.9946037 C7,14.3710941 7.03467626,14.7394854 7.10100919,15.096758 L7.10100919,15.096758 Z M25.2749382,10.4946037 C26.0264591,9.7851122 26.5780984,8.86615275 26.8364888,7.83109247 C26.9242079,7.4797073 26.9781305,7.11494167 26.9946037,6.74044857 C26.5269611,6.9050627 26.0239372,6.99460366 25.5,6.99460366 C23.0147185,6.99460366 21,4.97988516 21,2.49460366 C21,1.97066642 21.089541,1.46764261 21.2541551,1 C20.879662,1.01647312 20.5148964,1.07039573 20.1635112,1.15811484 C17.7718077,1.75517509 16,3.91797533 16,6.49460366 C16,6.92191619 16.0487309,7.337847 16.1409385,7.73714197 C15.1963581,7.26207976 14.1294153,6.99460366 13,6.99460366 C9.13400656,6.99460366 6,10.1286102 6,13.9946037 C6,14.1327545 6.00400207,14.2699707 6.01189661,14.4061425 C4.23965876,15.1762121 3,16.9437347 3,18.9946037 C3,21.7560274 5.23249418,23.9946037 7.99943992,23.9946037 L25.0005601,23.9946037 C27.7616745,23.9946037 30,21.7504085 30,18.9946037 C30,16.9429423 28.7676457,15.1798968 26.9993494,14.4091332 C26.9758595,12.8672373 26.3178749,11.4792133 25.2749382,10.4946037 L25.2749382,10.4946037 L25.2749382,10.4946037 Z M24.4770358,9.86917711 C25.046841,9.36611221 25.4882557,8.72097729 25.7458449,7.98920732 C25.6643448,7.99279233 25.5823839,7.99460366 25.5,7.99460366 C22.4624337,7.99460366 20,5.53216993 20,2.49460366 C20,2.41221974 20.0018113,2.33025889 20.0053963,2.24875875 C18.2547894,2.86498709 17,4.5332594 17,6.49460366 C17,7.29410506 17.2084979,8.04490915 17.5740867,8.69560895 C17.959598,9.02867845 18.3083804,9.40310764 18.6135384,9.81200101 C19.4525719,9.29370067 20.441357,8.99460366 21.5,8.99460366 C22.5969862,8.99460366 23.6189624,9.31575913 24.4770358,9.86917711 L24.4770358,9.86917711 L24.4770358,9.86917711 Z M10,26 C9.44771525,26 9,26.4438648 9,27 C9,27.5522847 9.44386482,28 10,28 C10.5522847,28 11,27.5561352 11,27 C11,26.4477153 10.5561352,26 10,26 L10,26 Z M13,29 C12.4477153,29 12,29.4438648 12,30 C12,30.5522847 12.4438648,31 13,31 C13.5522847,31 14,30.5561352 14,30 C14,29.4477153 13.5561352,29 13,29 L13,29 Z M17,26 C16.4477153,26 16,26.4438648 16,27 C16,27.5522847 16.4438648,28 17,28 C17.5522847,28 18,27.5561352 18,27 C18,26.4477153 17.5561352,26 17,26 L17,26 Z M20,29 C19.4477153,29 19,29.4438648 19,30 C19,30.5522847 19.4438648,31 20,31 C20.5522847,31 21,30.5561352 21,30 C21,29.4477153 20.5561352,29 20,29 L20,29 Z M23,26 C22.4477153,26 22,26.4438648 22,27 C22,27.5522847 22.4438648,28 23,28 C23.5522847,28 24,27.5561352 24,27 C24,26.4477153 23.5561352,26 23,26 L23,26 Z" id="moon-snow" sketch:type="MSShapeGroup"></path>
        </g>
    </g>
</svg>

<svg width="32" height="32" xmlns="http://www.w3.org/2000/svg"><path d="M7.101 15.097A4.006 4.006 0 0 0 4 18.995c0 2.209 1.798 4 4.003 4h16.994a4.004 4.004 0 0 0 4.003-4 4.006 4.006 0 0 0-3.042-3.884 4.5 4.5 0 0 0-7.606-3.832 6 6 0 0 0-11.25 3.818H7.1zm18.174-4.602a5.495 5.495 0 0 0 1.72-3.755A4.5 4.5 0 0 1 21.255 1a5.502 5.502 0 0 0-5.113 6.737 7 7 0 0 0-10.129 6.669 5.006 5.006 0 0 0-3.013 4.589c0 2.761 2.232 5 5 5h17c2.762 0 5-2.245 5-5a4.998 4.998 0 0 0-3-4.586 5.484 5.484 0 0 0-1.725-3.914zm-.798-.626a4.506 4.506 0 0 0 1.269-1.88 5.5 5.5 0 0 1-5.74-5.74 4.502 4.502 0 0 0-2.432 6.447c.386.333.734.707 1.04 1.116a5.474 5.474 0 0 1 2.886-.817c1.097 0 2.119.32 2.977.874zM10 26c-.552 0-1 .444-1 1 0 .552.444 1 1 1 .552 0 1-.444 1-1 0-.552-.444-1-1-1zm3 3c-.552 0-1 .444-1 1 0 .552.444 1 1 1 .552 0 1-.444 1-1 0-.552-.444-1-1-1zm4-3c-.552 0-1 .444-1 1 0 .552.444 1 1 1 .552 0 1-.444 1-1 0-.552-.444-1-1-1zm3 3c-.552 0-1 .444-1 1 0 .552.444 1 1 1 .552 0 1-.444 1-1 0-.552-.444-1-1-1zm3-3c-.552 0-1 .444-1 1 0 .552.444 1 1 1 .552 0 1-.444 1-1 0-.552-.444-1-1-1z" fill="#929292" fill-rule="evenodd"/></svg>
